X:1
T:نسم علينا الهوى
T:الأخوين رحباني
T:فيروز
L:1/8
Q:1/4=110
M:4/4
K:F
V:1 treble nm="Piano, Staff" snm="Pno."
V:1
|:"^مقدمة موسيقية" GABA A4 | GABA A4 | cdec BcdB | ABcB A3 G/"^تدوين: حسان حسن"A/ | BAGF E3 F/G/ | %5
 AGFE D3 E/F/ | GFED CB,A,G, | A,B,CB, A,4 ::S"^نسم" A2 B2"^علـــــــينا" A2 G2 | %9
 A2"^الهــوى" B2 A2 G2 |"^من" A2"^مفـــرق" B2 cddc |"^الـــــــــــــوادي" cBBA A4 | %12
"^يـــا هــــــوى" AGAB G2 F2 |"^دخل الهـــــوى" G2 A2 FE D2 |"^خــــــدني" GFFE"^علــــــى" EDDC | %15
"^بـــلادي" CB,B,A, A,4!dacoda! ::"^يا" A4"^هـــوى" A2 D2 |"^يا" BG"^هـــوى"AF G4 | %18
"^ياللي" G2 G2"^طاير" G2 C2 |"^في الهــــوى" AFGE F4 |"^في" EF"^مــــــــــــــنتورة"GF FEED | %21
"^طــــاقة" DEFE"^وصــورة" EDDC |"^خدني \n" CD"^لعــــــندن"ED DCCB, |"^يا" C2"^هـــوى" B,2 A,4 :| %24
"^فـــــــــــــزعانة" E2 E2 E2"^يا" D2 |"^قــــــــــــــــــــــــــــلبي" E2 DC B,2 A,2 | %26
"^تــــكبر" F2 F2"^في" F2 E2 |"^غــــــــــــــــــــــــــــــــــــــــربة" G2 FE DCB,A, | %28
"^وما" G2"^تــــــــــــــــــــــــعرفي" G^F G2 GF | %29
"^بــــــــــــــــــــــــــــلادي" G3 A FE D2 |"^خـــــــــــــــــــدني" A2 A6 | G4 c4 | B6 A2 | %33
"^خـــــــــدني" B2 A2 z4 |"^خــــــدني" AGGF"^علــــــى" FEED |"^بـــلادي" DCCB, CB, A,2!D.S.! | %36
O A,8!fine! |] %37

